X:1
T:Darwall’s 148th, 66.66.88
T:John Darwall, 1770
T:Darwall’s 148th, 66.66.88
T:Public Domain
C:John Darwall, 1770
Z:Public Domain
%%score ( 1 2 ) ( 3 4 )
L:1/8
M:4/4
K:D
V:1 treble 
V:2 treble 
V:3 bass 
V:4 bass 
V:1
 D2 | [DF]2 D2 [EA]2 F2 | [Fd]6 [Fc]2 | [GB]2 [DA]2 [CG]2 [DF]2 | [CE]6 [CE]2 | %5
 [DF]2 D2 [FB]2 [FA]2 | [E^G]2 E2 [Ee]2 [Fd]2 | c4 B4 | [CA]6 [DA]2 | [DB]4 [Gc]4 | [Fd]6 D2 | %11
 [A,E]2 [DF]2 G2 [FA]2 | [DB]2 [Fc]2 [Fd]2 [Ee]2 | [Fd]4 (E2 G2) | [Fd]6 |] %15
V:2
 D2 | x2 D2 F2 x2 | x8 | x8 | x8 | x2 D2 x4 | x2 E2 x4 | E6 x2 | x8 | x8 | x6 D2 | x4 G2 x2 | x8 | %13
 x4 c4 | x6 |] %15
V:3
 [D,F,]2 | [D,A,]2 [D,F,]2 [C,A,]2 [D,A,]2 | [B,D]6 [A,D]2 | [G,D]2 [F,A,]2 [E,A,]2 [D,A,]2 | %4
 [A,,A,]6 [A,,A,]2 | [D,A,]2 [D,F,]2 [B,,D]2 [B,,D]2 | [E,B,]2 [D,^G,]2 [C,A,]2 [D,A,]2 | %7
 [E,A,]4 [E,^G,]4 | [A,,A,]6 [D,F,]2 | G,4 [E,G,]4 | [D,A,]6 [D,F,]2 | %11
 [C,A,]2 [D,A,]2 [B,D]2 [A,D]2 | [G,B,]2 [F,^A,]2 B,2 [G,B,]2 | A,4 [A,,A,]4 | [D,A,]6 |] %15
V:4
 x2 | x8 | x8 | x8 | x8 | x8 | x8 | x8 | x8 | G,4 x4 | x8 | x8 | x4 B,2 x2 | A,4 x4 | x6 |] %15

